X: 11492
T: Ed's Big 5 0
R: reel
M: 4/4
K: Dmajor
|:DAcd z ~d-AG|Gdfd eA d2|DAcd z ~d-AG|GdcA EDGF|
DAcd z ~d-AG|Gdfd eA d2|Bdfd eAdA|1 (3Bcd cA-AEDA:|2 (3Bcd cA-AE D2||
B2 dB fd (3BAG|A2 dA cdd z|G2 AG FDDF|EAcd dB-ed|
B2 dB fd (3BAG|ADdD cdd z|a2 bg fAAd|cAef Bd d2|
B2 dB fd (3BAG|A2 dA cdd z|G2 AG FDDF|EAcd dB-ed|
DEED cAED-|DDcA ED z2|g2 gf z fed|edef ed d2||

